public/images/androidIcon.svg

<?xml version="1.0" encoding="UTF-8"?>
<svg  viewBox="0 0 72 72" version="1.1" xmlns="http://www.w3.org/2000/svg" xmlns:xlink="http://www.w3.org/1999/xlink">
    <!-- Generator: Sketch 49.2 (51160) - http://www.bohemiancoding.com/sketch -->
    <title>Android</title>
    <desc>Created with Sketch.</desc>
    <defs></defs>
    <g id="Page-1" stroke="none" stroke-width="1" fill="none" fill-rule="evenodd">
        <g id="Social-Icons---Circle" transform="translate(-376.000000, -1275.000000)">
            <g id="Android" transform="translate(376.000000, 1275.000000)">
                <path d="M36,72 L36,72 C55.882251,72 72,55.882251 72,36 L72,36 C72,16.117749 55.882251,-3.65231026e-15 36,0 L36,0 C16.117749,3.65231026e-15 -2.4348735e-15,16.117749 0,36 L0,36 C2.4348735e-15,55.882251 16.117749,72 36,72 Z" id="Oval" fill="#95CF00"></path>
                <path d="M41.7270091,21.6009048 C40.935377,21.6009048 40.2945319,20.9771946 40.2945319,20.2067292 C40.2945319,19.4362637 40.935377,18.8153758 41.7270091,18.8153758 C42.5186413,18.8153758 43.1594863,19.4362637 43.1594863,20.2067292 C43.1594863,20.9771946 42.5186413,21.6009048 41.7270091,21.6009048 L41.7270091,21.6009048 Z M30.2729909,21.6009048 C29.4813587,21.6009048 28.8405137,20.9771946 28.8405137,20.2067292 C28.8405137,19.4362637 29.4813587,18.8153758 30.2729909,18.8153758 C31.064623,18.8153758 31.7054681,19.4362637 31.7054681,20.2067292 C31.7054681,20.9771946 31.064623,21.6009048 30.2729909,21.6009048 L30.2729909,21.6009048 Z M42.5737365,16.018558 C46.6217896,17.8558217 49.3620547,21.3356163 49.3620547,25.3177656 L22.6379453,25.3177656 C22.6379453,21.3356163 25.3782104,17.8558217 29.4291632,16.018558 L28.8927092,15.2339814 L28.3591549,14.4606937 L27.1702568,12.7222076 C27.0252693,12.507719 27.086164,12.2198528 27.3036454,12.0787419 C27.5240265,11.937631 27.8198012,11.9940754 27.9676885,12.2085639 L29.2435791,14.0712277 L29.7800331,14.852982 L30.3222867,15.6488474 C32.0476388,14.9969151 33.9730737,14.632849 36,14.632849 C38.029826,14.632849 39.9523612,14.9969151 41.6777133,15.6488474 L42.2228666,14.852982 L44.038111,12.2085639 C44.1801988,11.9940754 44.4788732,11.9348088 44.6963546,12.0787419 C44.9167357,12.2198528 44.9776305,12.507719 44.8297432,12.7222076 L43.6408451,14.4606937 L43.1072908,15.2339814 L42.5737365,16.018558 Z M22.8438277,27.1747849 L49.3620547,27.1747849 L49.3620547,47.6132861 C49.3620547,49.2360613 48.0107705,50.5568593 46.3405137,50.5568593 L44.1570008,50.5568593 C44.2323944,50.8023922 44.2758906,51.059214 44.2758906,51.3301469 L44.2758906,57.214471 C44.2758906,58.7525797 42.9913007,60 41.4080365,60 C39.8276719,60 38.5459818,58.7525797 38.5459818,57.214471 L38.5459818,51.3301469 C38.5459818,51.059214 38.5865783,50.8023922 38.6590721,50.5568593 L33.3409279,50.5568593 C33.4134217,50.8023922 33.456918,51.059214 33.456918,51.3301469 L33.456918,57.214471 C33.456918,58.7525797 32.1723281,60 30.5919635,60 C29.011599,60 27.7270091,58.7525797 27.7270091,57.214471 L27.7270091,51.3301469 C27.7270091,51.059214 27.7676056,50.8023922 27.8429992,50.5568593 L25.6623861,50.5568593 C23.9921292,50.5568593 22.6379453,49.2360613 22.6379453,47.6132861 L22.6379453,27.1747849 L22.8438277,27.1747849 Z M17.8649544,27.1747849 C19.445319,27.1747849 20.7270091,28.4222051 20.7270091,29.9603138 L20.7270091,41.884184 C20.7270091,43.4222927 19.445319,44.669713 17.8649544,44.669713 C16.2816901,44.669713 15,43.4222927 15,41.884184 L15,29.9603138 C15,28.4222051 16.2816901,27.1747849 17.8649544,27.1747849 Z M54.1379453,27.1747849 C55.7183099,27.1747849 57,28.4222051 57,29.9603138 L57,41.884184 C57,43.4222927 55.7183099,44.669713 54.1379453,44.669713 C52.554681,44.669713 51.2729909,43.4222927 51.2729909,41.884184 L51.2729909,29.9603138 C51.2729909,28.4222051 52.554681,27.1747849 54.1379453,27.1747849 Z" fill="#FFFFFF"></path>
            </g>
        </g>
    </g>
</svg>

<svg xmlns="http://www.w3.org/2000/svg" viewBox="0 0 72 72" fill-rule="evenodd" xmlns:v="https://vecta.io/nano"><path d="M36 72h0c19.882 0 36-16.118 36-36h0C72 16.118 55.882 0 36 0h0C16.118 0 0 16.118 0 36h0c0 19.882 16.118 36 36 36z" fill="#95cf00"/><path d="M41.727 21.601c-.792 0-1.432-.624-1.432-1.394s.641-1.391 1.432-1.391 1.432.621 1.432 1.391-.641 1.394-1.432 1.394h0zm-11.454 0c-.792 0-1.432-.624-1.432-1.394s.641-1.391 1.432-1.391 1.432.621 1.432 1.391-.641 1.394-1.432 1.394h0zm12.301-5.582c4.048 1.837 6.788 5.317 6.788 9.299H22.638c0-3.982 2.74-7.462 6.791-9.299l-.536-.785-.534-.773-1.189-1.738a.46.46 0 0 1 .133-.643.49.49 0 0 1 .664.13l1.276 1.863.536.782.542.796c1.725-.652 3.651-1.016 5.678-1.016s3.952.364 5.678 1.016l.545-.796 1.815-2.644a.48.48 0 0 1 .658-.13c.22.141.281.429.133.643l-1.189 1.738-.534.773-.534.785zm-19.73 11.156h26.518v20.439c0 1.623-1.351 2.944-3.022 2.944h-2.184c.075.246.119.502.119.773v5.884c0 1.538-1.285 2.786-2.868 2.786s-2.862-1.247-2.862-2.786V51.33c0-.271.041-.528.113-.773h-5.318c.072.246.116.502.116.773v5.884c0 1.538-1.285 2.786-2.865 2.786s-2.865-1.247-2.865-2.786V51.33c0-.271.041-.528.116-.773h-2.181c-1.67 0-3.024-1.321-3.024-2.944V27.175h.206zm-4.979 0c1.58 0 2.862 1.247 2.862 2.786v11.924c0 1.538-1.282 2.786-2.862 2.786S15 43.422 15 41.884V29.96c0-1.538 1.282-2.786 2.865-2.786zm36.273 0c1.58 0 2.862 1.247 2.862 2.786v11.924c0 1.538-1.282 2.786-2.862 2.786s-2.865-1.247-2.865-2.786V29.96c0-1.538 1.282-2.786 2.865-2.786z" fill="#fff"/></svg>
